docs/images/nav-bg.svg

<svg width="161" height="112" viewBox="0 0 161 112" fill="none" xmlns="http://www.w3.org/2000/svg">
<path opacity="0.2" fill-rule="evenodd" clip-rule="evenodd" d="M25.5794 100.365C45.8369 100.365 49.6542 82.2743 49.6542 67.7904C52.0602 67.7904 71.0747 67.7904 79.7477 67.7904C126.924 67.7904 126.936 0 81.2523 0C68.8267 0 60.8234 7.65074 58.6807 10.3159C33.1916 10.3159 30.0935 23.8426 30.0935 50.1074C30.0935 55.1744 30.0935 71.6455 30.0935 74.1827C30.0935 80.3583 27.6499 84.3648 21.0639 84.3648C15.441 84.3648 12.7777 79.3079 10.5312 72.2115C9.36058 72.8501 1.14055 77.3658 0 78.1063C2.48723 85.1955 5.1505 100.365 25.5794 100.365ZM54.2194 39.79C61.9369 39.79 62.5929 51.5796 53.6732 51.5796C46.1543 51.5796 46.35 39.79 54.2194 39.79ZM81.2538 75.1196C74.7311 75.1196 55.6729 73.6852 55.6729 73.6852V110.032L73.729 110.294L78.243 84.0011L135.421 82.91L136.927 111.737L157.992 112C157.992 112 161 55.5381 161 44.2111C161 23.201 151.745 11.3095 130.907 10.3159C125.685 10.0671 118.854 9.07789 114.355 8.84221C133.966 33.0776 118.362 75.1196 81.2538 75.1196ZM117.366 89.8566L118.869 111.213L130.907 111.476L129.402 89.8566H117.366ZM79.7477 110.558L91.785 110.82L94.7929 89.8566H84.2602L79.7477 110.558Z" fill="#666666"/>
</svg>

<svg width="161" height="112" fill="none" xmlns="http://www.w3.org/2000/svg"><path opacity=".2" fill-rule="evenodd" clip-rule="evenodd" d="M25.58 100.365c20.257 0 24.074-18.09 24.074-32.575h30.094C126.924 67.79 126.936 0 81.252 0 68.827 0 60.823 7.65 58.681 10.316c-25.49 0-28.587 13.527-28.587 39.791v24.076c0 6.175-2.444 10.182-9.03 10.182-5.623 0-8.286-5.057-10.533-12.153-1.17.638-9.39 5.154-10.531 5.894 2.487 7.09 5.15 22.259 25.58 22.259zM54.22 39.79c7.717 0 8.373 11.79-.547 11.79-7.519 0-7.323-11.79.546-11.79zm27.034 35.33c-6.523 0-25.581-1.435-25.581-1.435v36.347l18.056.262 4.514-26.293 57.178-1.091 1.506 28.827 21.065.263S161 55.538 161 44.211c0-21.01-9.255-32.901-30.093-33.895-5.222-.249-12.053-1.238-16.552-1.474 19.611 24.236 4.007 66.278-33.101 66.278zm36.112 14.737l1.503 21.356 12.038.263-1.505-21.62h-12.036zm-37.618 20.701l12.037.262 3.008-20.963H84.26l-4.512 20.701z" fill="#666"/></svg>
